X: 18078
T: Humours Of Ballyconnell, The
R: reel
M: 4/4
K: Dmajor
defe dBAF|BFAF E3A|defe dBAF|BFAF D3A|
defe dBAF|BFAF E3A|defe dBAF|BFAF D3E||
FDAD FD D2|GEBE GE E2|FDAD FD D2|BFAF D3E|
FDAD FD D2|GEBE GE E2|(3FGA Bc dedB|BFAF D3f||
a3f a3f|gece gece|a3f a3g|fgef defg
a3f a3f|gece gece|defg a3g|fgef d3A||

